X: 1
T: Jim Coleman's
M: 4/4
L: 1/8
R: hornpipe
K: Gmaj
BA|(3GAG F>G E2B>A|G>AF>G E>GA>G|(3FGF E>F D>FA>G|F>GE>F D2B>A|
(3GAG F>G E>GB>A|G>AF>G EB~B2|E>DE>F ~G3A|1 B>GF>G E2:|2 B2e2 e2||
D2|~G3A B>AG>F|(3efe (3def e2d>c|(3BAB G>B A>BF>A|G2d>B G>FE>D|
~G3A B>AG>F|(3efe (3def e2d>c|(3Bcd G>B (3ABA F>A|G2 (3AGF G2 D2|
~G3A B>AG>F|(3efe (3def e2d>c|(3BAB G>B A>BF>A|G2B>G d>cB>A|
~G3A B>AG>F|(3efe (3def e2d>c|(3Bcd G>B (3ABA F>A|G2 (3AGF G2||
